gtk/icon/24x24/apps/aseprite.svg

<svg xmlns="http://www.w3.org/2000/svg" width="24" height="24" version="1">
 <rect width="2" height="1" x="20" y="6" style="opacity:0.2"/>
 <rect width="2" height="1" x="18" y="4" style="opacity:0.2"/>
 <rect style="opacity:0.2" width="2" height="1" x="4" y="4"/>
 <rect style="fill:#ffffff" width="16" height="16" x="4" y="4"/>
 <path style="opacity:0.2" d="m 2,18.5 v 2 h 2 v 2 h 2 12 2 v -2 h 2 v -2 z m 18,0 h -2 v 2 H 6 v -2 H 4 Z"/>
 <path style="fill:#5c3e52" d="M 6,2 V 4 H 18 V 2 Z m 12,2 v 2 h 2 V 4 Z m 2,2 v 12 h 2 V 6 Z m 0,12 h -2 v 2 h 2 z m -2,2 H 6 v 2 H 18 Z M 6,20 V 18 H 4 v 2 z M 4,18 V 6 H 2 V 18 Z M 4,6 H 6 V 4 H 4 Z m 3,2 v 6 H 9 V 8 Z m 8,0 v 6 h 2 V 8 Z"/>
 <path style="fill:#6d8292" d="m 4,16 v 2 h 2 v 2 h 12 v -2 h 2 v -2 h -2 v 1 H 6 v -1 z"/>
 <path style="fill:#735d6c" d="M 4,2 V 4 H 6 V 2 Z M 4,4 H 2 V 6 H 4 Z M 18,2 v 2 h 2 V 2 Z m 2,2 v 2 h 2 V 4 Z M 2,18 v 2 h 2 v -2 z m 2,2 v 2 h 2 v -2 z m 16,-2 v 2 h 2 v -2 z m 0,2 h -2 v 2 h 2 z"/>
 <rect style="opacity:0.2" width="2" height=".5" x="2" y="6"/>
 <rect width="2" height=".5" x="4" y="4" style="opacity:0.2"/>
 <rect style="opacity:0.2" width="2" height=".5" x="18" y="4"/>
 <rect width="2" height=".5" x="20" y="6" style="opacity:0.2"/>
 <rect width="2" height=".5" x="4" y="18" style="opacity:0.2"/>
 <rect style="opacity:0.2" width="2" height=".5" x="18" y="18"/>
 <rect width="12" height=".5" x="6" y="20" style="opacity:0.2"/>
 <path style="opacity:0.1;fill:#ffffff" d="M 2 18 L 2 18.5 L 4 18.5 L 4 18 L 2 18 z M 20 18 L 20 18.5 L 22 18.5 L 22 18 L 20 18 z M 4 20 L 4 20.5 L 6 20.5 L 6 20 L 4 20 z M 18 20 L 18 20.5 L 20 20.5 L 20 20 L 18 20 z"/>
 <path style="opacity:0.1" d="m 7,14 h 2 v 0.5 H 7 Z"/>
 <path style="opacity:0.1" d="m 15,14 h 2 v 0.5 h -2 z"/>
 <rect style="opacity:0.1;fill:#ffffff" width="12" height=".5" x="6" y="2"/>
 <rect style="opacity:0.2" width="2" height=".5" x="4" y="16"/>
 <rect width="2" height=".5" x="18" y="16" style="opacity:0.2"/>
 <rect style="opacity:0.2" width="12" height=".5" x="6" y="17"/>
</svg>

<svg xmlns="http://www.w3.org/2000/svg" width="24" height="24" version="1">
 <path style="fill:#825873" d="M 4 2 L 4 4 L 6 4 L 6 2 L 4 2 z M 4 4 L 2 4 L 2 6 L 4 6 L 4 4 z M 18 2 L 18 4 L 20 4 L 20 2 L 18 2 z M 20 4 L 20 6 L 22 6 L 22 4 L 20 4 z M 2 18 L 2 20 L 4 20 L 4 18 L 2 18 z M 4 20 L 4 22 L 6 22 L 6 20 L 4 20 z M 20 18 L 20 20 L 22 20 L 22 18 L 20 18 z M 20 20 L 18 20 L 18 22 L 20 22 L 20 20 z"/>
 <rect style="fill:#ffffff" width="16" height="16" x="4" y="4"/>
 <path style="fill:#5c3e52" d="M 6 2 L 6 4 L 18 4 L 18 2 L 6 2 z M 18 4 L 18 6 L 20 6 L 20 4 L 18 4 z M 20 6 L 20 18 L 22 18 L 22 6 L 20 6 z M 20 18 L 18 18 L 18 20 L 20 20 L 20 18 z M 18 20 L 6 20 L 6 22 L 18 22 L 18 20 z M 6 20 L 6 18 L 4 18 L 4 20 L 6 20 z M 4 18 L 4 6 L 2 6 L 2 18 L 4 18 z M 4 6 L 6 6 L 6 4 L 4 4 L 4 6 z M 8 8 L 8 14 L 10 14 L 10 8 L 8 8 z M 14 8 L 14 14 L 16 14 L 16 8 L 14 8 z"/>
 <path style="fill:#6d8292" d="m4 16v2h2v2h12v-2h2v-2h-2v2h-12v-2z"/>
 <path style="opacity:.1" d="m8 14h2v0.5h-2z"/>
 <path style="opacity:.1" d="m14 14h2v0.5h-2z"/>
 <path style="opacity:0.1;fill:#ffffff" d="M 4 2 L 4 2.5 L 20 2.5 L 20 2 L 4 2 z M 2 4 L 2 4.5 L 4 4.5 L 4 4 L 2 4 z M 20 4 L 20 4.5 L 22 4.5 L 22 4 L 20 4 z"/>
 <rect style="opacity:.2" width="2" height=".5" x="4" y="18"/>
 <rect style="opacity:.2" width="2" height=".5" x="18" y="18"/>
 <rect style="opacity:.2" width="12" height=".5" x="6" y="20"/>
 <g transform="translate(1,1)">
  <rect style="opacity:.2" width="2" height=".5" x="3" y="15"/>
  <rect style="opacity:.2" width="2" height=".5" x="17" y="15"/>
  <rect style="opacity:.2" width="12" height=".5" x="5" y="17"/>
 </g>
 <path style="opacity:0.2" d="m 2,20 v 0.5 H 4 V 20 Z m 18,0 v 0.5 h 2 V 20 Z M 4,22 v 0.5 H 20 V 22 Z"/>
 <path style="opacity:0.1;fill:#ffffff" d="M 2 18 L 2 18.5 L 4 18.5 L 4 18 L 2 18 z M 20 18 L 20 18.5 L 22 18.5 L 22 18 L 20 18 z M 4 20 L 4 20.5 L 6 20.5 L 6 20 L 4 20 z M 18 20 L 18 20.5 L 20 20.5 L 20 20 L 18 20 z"/>
</svg>
